X: 501
T: Jiang wugeng
L: 1/8
M: 2/4
K: Bb
bb2c' [I:setbarnb 1]| 
d' f' d' c' | 
d' b c' d' | 
b4 | 
f' f' f' d' | 
c'4 | 
b b a g | 
f4 | 
b gf2 | 
b d' c' b | 
g bf2 | 
g f d c | 
B2G c | 
B4 |]

@@@ Tune index: 9375
